X: 41947
T: Walking On Water
R: jig
M: 6/8
K: Adorian
|:EA,B, CDE|GCB cBG|ADd GFD|B,DF2 GF|
EA,B, CDE|GCB cBG|ADg fdA|GFD F2G:|
|:eAc BGE|EBG ABG|d^cA ED^C|D2 E2<A,2|A,B,C DEG|
GDG AdF|GFG AGA|1 BGd GfB:|2 BG f2gf||

